X: 42550
T: When Jill Fell Down The Hill
R: jig
M: 6/8
K: Dmajor
BGE cGE|DFA BGE|BGE cGE|DFA G2A|
BGE cGE|DFA BGE|BGE cGE|DFA G2B|
GBd gdB|ecA dBG|GBd gdB|dfa bge|
GBd gdB|ecA dBG|GBd gdB|cAd G2A|

